X:1
T:South Missouri
L:1/8
M:4/4
I:linebreak $
K:D
V:1 treble
V:1
 e2 |"D" [Af]3 a fe dA | "G"B2 [Bg]2 B2 [Bg]2 | "D"[Af]3 a fe dA | "A"c2 [ce]2 c2 [ce]2 | "D"[Af]3 a fe dA |  "G"B2 [Bg]2 B2 [Bg]2 |$
 "A"a3 b ag ed | cA Bc "D"d2 FG || "D"AB AG FG AA |"G" BA Bc dB AF |"D" AB dA BA FD | $
"A" ED CB, A,2 FG |"D" AB AG FG AA |"G" BA Bc d2 f2 |"A" ed ef gf ed | cA Bc "D"d2 |]
